assets/images/money-bill-transfer.svg

<svg viewBox="0 0 640 512" xmlns="http://www.w3.org/2000/svg"><path d="m535 41c-9.4-9.4-9.4-24.6 0-33.9s24.6-9.4 33.9 0l64 64c4.5 4.5 7 10.6 7 17s-2.5 12.5-7 17l-64 64c-9.4 9.4-24.6 9.4-33.9 0s-9.4-24.6 0-33.9l23-23-174-.2c-13.3 0-24-10.7-24-24s10.7-24 24-24h174.1zm-430 336-23 23h174c13.3 0 24 10.7 24 24s-10.7 24-24 24h-174.1l23 23c9.4 9.4 9.4 24.6 0 33.9s-24.6 9.4-33.9 0l-64-63.9c-4.5-4.5-7-10.6-7-17s2.5-12.5 7-17l64-64c9.4-9.4 24.6-9.4 33.9 0s9.4 24.6 0 33.9zm-9-313h241.9c-3.7 7.2-5.9 15.3-5.9 24 0 28.7 23.3 52 52 52h117.4c-4 17 .6 35.5 13.8 48.8 20.3 20.3 53.2 20.3 73.5 0l19.3-19.3v214.5c0 35.3-28.7 64-64 64h-241.9c3.7-7.2 5.9-15.3 5.9-24 0-28.7-23.3-52-52-52h-117.4c4-17-.6-35.5-13.8-48.8-20.3-20.3-53.2-20.3-73.5 0l-19.3 19.3v-214.5c0-35.3 28.7-64 64-64zm64 64h-64v64c35.3 0 64-28.7 64-64zm384 192c-35.3 0-64 28.7-64 64h64zm-224 32a96 96 0 1 0 0-192 96 96 0 1 0 0 192z"/></svg>

<svg xmlns="http://www.w3.org/2000/svg" viewBox="0 0 640 512"><!--! Font Awesome Pro 6.4.0 by @fontawesome - https://fontawesome.com License - https://fontawesome.com/license (Commercial License) Copyright 2023 Fonticons, Inc. --><path d="M535 41c-9.4-9.4-9.4-24.6 0-33.9s24.6-9.4 33.9 0l64 64c4.5 4.5 7 10.6 7 17s-2.5 12.5-7 17l-64 64c-9.4 9.4-24.6 9.4-33.9 0s-9.4-24.6 0-33.9l23-23L384 112c-13.3 0-24-10.7-24-24s10.7-24 24-24l174.1 0L535 41zM105 377l-23 23L256 400c13.3 0 24 10.7 24 24s-10.7 24-24 24L81.9 448l23 23c9.4 9.4 9.4 24.6 0 33.9s-24.6 9.4-33.9 0L7 441c-4.5-4.5-7-10.6-7-17s2.5-12.5 7-17l64-64c9.4-9.4 24.6-9.4 33.9 0s9.4 24.6 0 33.9zM96 64H337.9c-3.7 7.2-5.9 15.3-5.9 24c0 28.7 23.3 52 52 52l117.4 0c-4 17 .6 35.5 13.8 48.8c20.3 20.3 53.2 20.3 73.5 0L608 169.5V384c0 35.3-28.7 64-64 64H302.1c3.7-7.2 5.9-15.3 5.9-24c0-28.7-23.3-52-52-52l-117.4 0c4-17-.6-35.5-13.8-48.8c-20.3-20.3-53.2-20.3-73.5 0L32 342.5V128c0-35.3 28.7-64 64-64zm64 64H96v64c35.3 0 64-28.7 64-64zM544 320c-35.3 0-64 28.7-64 64h64V320zM320 352a96 96 0 1 0 0-192 96 96 0 1 0 0 192z"/></svg>
